pk/source-code.svg

<svg viewBox="0 0 48 48" fill="none" xmlns="http://www.w3.org/2000/svg" height="1em" width="1em">
  <path d="M23 40H7C5.34315 40 4 38.6569 4 37V11C4 9.34315 5.34315 8 7 8H41C42.6569 8 44 9.34315 44 11V25.8824" stroke="black" stroke-width="4" stroke-linecap="round" stroke-linejoin="round"/>
  <path d="M4 11C4 9.34315 5.34315 8 7 8H41C42.6569 8 44 9.34315 44 11V20H4V11Z" fill="#2F88FF" stroke="black" stroke-width="4"/>
  <path d="M34 33L30 37L34 41" stroke="black" stroke-width="4" stroke-linecap="round" stroke-linejoin="round"/>
  <path d="M40 33L44 37L40 41" stroke="black" stroke-width="4" stroke-linecap="round" stroke-linejoin="round"/>
  <circle r="2" transform="matrix(-1.31134e-07 -1 -1 1.31134e-07 10 14)" fill="white"/>
  <circle r="2" transform="matrix(-1.31134e-07 -1 -1 1.31134e-07 16 14)" fill="white"/>
</svg>

<svg viewBox="0 0 48 48" fill="none" xmlns="http://www.w3.org/2000/svg" height="1em" width="1em">
  <path d="M23 40H7a3 3 0 0 1-3-3V11a3 3 0 0 1 3-3h34a3 3 0 0 1 3 3v14.882" stroke="#000" stroke-width="4" stroke-linecap="round" stroke-linejoin="round"/>
  <path d="M4 11a3 3 0 0 1 3-3h34a3 3 0 0 1 3 3v9H4v-9Z" fill="#2F88FF" stroke="#000" stroke-width="4"/>
  <path d="m34 33-4 4 4 4m6-8 4 4-4 4" stroke="#000" stroke-width="4" stroke-linecap="round" stroke-linejoin="round"/>
  <circle r="2" transform="matrix(0 -1 -1 0 10 14)" fill="#fff"/>
  <circle r="2" transform="matrix(0 -1 -1 0 16 14)" fill="#fff"/>
</svg>
